public/images/hashed/cc7616a4d0d477e83168fc663633bbb8.svg

<?xml version="1.0" encoding="UTF-8"?>
<svg width="80px" height="80px" viewBox="0 0 80 80" version="1.1" xmlns="http://www.w3.org/2000/svg" xmlns:xlink="http://www.w3.org/1999/xlink">
    <!-- Generator: Sketch 64 (93537) - https://sketch.com -->
    <title>Icon-Architecture/64/Arch_Amazon-Aurora_64</title>
    <desc>Created with Sketch.</desc>
    <defs>
        <linearGradient x1="0%" y1="100%" x2="100%" y2="0%" id="linearGradient-1">
            <stop stop-color="#2E27AD" offset="0%"></stop>
            <stop stop-color="#527FFF" offset="100%"></stop>
        </linearGradient>
    </defs>
    <g id="Icon-Architecture/64/Arch_Amazon-Aurora_64" stroke="none" stroke-width="1" fill="none" fill-rule="evenodd">
        <g id="Icon-Architecture-BG/64/Database" fill="url(#linearGradient-1)">
            <rect id="Rectangle" x="0" y="0" width="80" height="80"></rect>
        </g>
        <path d="M45.0911055,18.0451258 L42.0830668,18.0451258 L42.0830668,16.0270755 L45.0911055,16.0270755 L45.0911055,13 L47.0964647,13 L47.0964647,16.0270755 L50.1045034,16.0270755 L50.1045034,18.0451258 L47.0964647,18.0451258 L47.0964647,21.0722014 L45.0911055,21.0722014 L45.0911055,18.0451258 Z M57.1232604,29.1444027 L54.1152217,29.1444027 L54.1152217,27.1263524 L57.1232604,27.1263524 L57.1232604,24.0992769 L59.1286196,24.0992769 L59.1286196,27.1263524 L62.1366583,27.1263524 L62.1366583,29.1444027 L59.1286196,29.1444027 L59.1286196,32.1714782 L57.1232604,32.1714782 L57.1232604,29.1444027 Z M51.9013052,61.0336342 C49.9861872,56.1681148 45.5663757,51.7203319 40.7294494,49.7920848 C45.5663757,47.8648467 49.9861872,43.4170637 51.9013052,38.5505353 C53.8164232,43.4170637 58.2362348,47.8648467 63.0721584,49.7920848 C58.2362348,51.7203319 53.8164232,56.1681148 51.9013052,61.0336342 L51.9013052,61.0336342 Z M67.9973204,48.7830596 C60.9444723,48.7830596 52.9039848,40.6916868 52.9039848,33.5942037 C52.9039848,33.0372218 52.455787,32.5851785 51.9013052,32.5851785 C51.3468234,32.5851785 50.8986256,33.0372218 50.8986256,33.5942037 C50.8986256,40.6916868 42.8571354,48.7830596 35.8042873,48.7830596 C35.2508082,48.7830596 34.8016077,49.2351029 34.8016077,49.7920848 C34.8016077,50.3500757 35.2508082,50.8011099 35.8042873,50.8011099 C42.8571354,50.8011099 50.8986256,58.8924828 50.8986256,65.9909748 C50.8986256,66.5479567 51.3468234,67 51.9013052,67 C52.455787,67 52.9039848,66.5479567 52.9039848,65.9909748 C52.9039848,58.8924828 60.9444723,50.8011099 67.9973204,50.8011099 C68.5507996,50.8011099 69,50.3500757 69,49.7920848 C69,49.2351029 68.5507996,48.7830596 67.9973204,48.7830596 L67.9973204,48.7830596 Z M13.0053591,28.9032457 C15.9251621,31.040361 21.5983231,32.1714782 27.0428732,32.1714782 C32.4874233,32.1714782 38.1605843,31.040361 41.0803872,28.9032457 L41.0803872,38.5676888 C39.635526,40.500981 34.3223269,42.4060205 27.2434091,42.4060205 C19.0946322,42.4060205 13.0053591,39.8430966 13.0053591,37.5516004 L13.0053591,28.9032457 Z M27.0428732,21.0722014 C35.7401158,21.0722014 41.0803872,23.7168563 41.0803872,25.6128146 C41.0803872,27.5087729 35.7401158,30.1534279 27.0428732,30.1534279 C18.3456306,30.1534279 13.0053591,27.5087729 13.0053591,25.6128146 C13.0053591,23.7168563 18.3456306,21.0722014 27.0428732,21.0722014 L27.0428732,21.0722014 Z M41.0803872,58.941925 C41.0803872,61.267728 35.0753393,63.8700039 27.0378598,63.8700039 C19.0063964,63.8700039 13.0053591,61.267728 13.0053591,58.941925 L13.0053591,52.4942542 C15.9612585,54.7504344 21.7477224,55.9451202 27.3005618,55.9451202 C31.1618809,55.9451202 34.8958596,55.3962105 37.8106491,54.3992937 L37.1669289,52.4882 C34.4536779,53.4154941 30.9493128,53.9270699 27.3005618,53.9270699 C19.1186965,53.9270699 13.0053591,51.364146 13.0053591,49.0726498 L13.0053591,40.9792589 C15.9532371,43.2314031 21.7146339,44.4240709 27.2434091,44.4240709 C33.16724,44.4240709 38.2478174,43.1960872 41.0803872,41.2516957 L41.0803872,44.2797803 L43.0857464,44.2797803 L43.0857464,25.6128146 C43.0857464,21.3527104 34.8206587,19.054151 27.0428732,19.054151 C19.5819345,19.054151 11.6918489,21.1751219 11.0621661,25.108302 L11,25.108302 L11,58.941925 C11,63.4532765 19.2630824,65.8880543 27.0378598,65.8880543 C34.8176506,65.8880543 43.0857464,63.4532765 43.0857464,58.941925 L43.0857464,55.3790571 L41.0803872,55.3790571 L41.0803872,58.941925 Z" id="Amazon-Aurora_Icon_64_Squid" fill="#FFFFFF"></path>
    </g>
</svg>

<svg xmlns="http://www.w3.org/2000/svg" width="80" height="80"><defs><linearGradient id="a" x1="0%" x2="100%" y1="100%" y2="0%"><stop offset="0%" stop-color="#2E27AD"/><stop offset="100%" stop-color="#527FFF"/></linearGradient></defs><g fill="none" fill-rule="evenodd"><path fill="url(#a)" d="M0 0h80v80H0z"/><path fill="#FFF" d="M45.091 18.045h-3.008v-2.018h3.008V13h2.005v3.027h3.009v2.018h-3.009v3.027h-2.005v-3.027Zm12.032 11.1h-3.008v-2.019h3.008V24.1h2.006v3.027h3.008v2.018h-3.008v3.027h-2.006v-3.027Zm-5.222 31.889c-1.915-4.866-6.335-9.314-11.172-11.242 4.837-1.927 9.257-6.375 11.172-11.241 1.915 4.866 6.335 9.314 11.171 11.241-4.836 1.928-9.256 6.376-11.17 11.242Zm16.096-12.25c-7.053 0-15.093-8.092-15.093-15.19 0-.557-.448-1.009-1.003-1.009-.554 0-1.002.452-1.002 1.01 0 7.097-8.042 15.188-15.095 15.188-.553 0-1.002.452-1.002 1.01 0 .557.449 1.008 1.002 1.008 7.053 0 15.095 8.091 15.095 15.19 0 .557.448 1.009 1.002 1.009.555 0 1.003-.452 1.003-1.009 0-7.099 8.04-15.19 15.093-15.19.554 0 1.003-.45 1.003-1.009 0-.557-.45-1.009-1.003-1.009Zm-54.992-19.88c2.92 2.136 8.593 3.267 14.038 3.267 5.444 0 11.118-1.13 14.037-3.268v9.665c-1.444 1.933-6.758 3.838-13.837 3.838-8.148 0-14.238-2.563-14.238-4.854v-8.649Zm14.038-7.832c8.697 0 14.037 2.645 14.037 4.54 0 1.897-5.34 4.541-14.037 4.541-8.697 0-14.038-2.644-14.038-4.54s5.34-4.54 14.038-4.54Zm14.037 37.87c0 2.326-6.005 4.928-14.042 4.928-8.032 0-14.033-2.602-14.033-4.928v-6.448c2.956 2.256 8.743 3.451 14.296 3.451 3.86 0 7.595-.549 10.51-1.546l-.644-1.91c-2.713.926-6.218 1.438-9.866 1.438-8.182 0-14.296-2.563-14.296-4.854v-8.094c2.948 2.252 8.71 3.445 14.238 3.445 5.924 0 11.005-1.228 13.837-3.172v3.028h2.006V25.613c0-4.26-8.265-6.559-16.043-6.559-7.461 0-15.351 2.121-15.98 6.054H11v33.834c0 4.511 8.263 6.946 16.038 6.946 7.78 0 16.048-2.435 16.048-6.946v-3.563H41.08v3.563Z"/></g></svg>
